X: 506
P: Longways for as many as will
M: 6/4
L: 1/4
K: G
d |\
|: B |\
(AF)A (AF)A | (AF)d (AF)B | (GE)E E2A |\
(FD)d (Be)d | (ge)a (df)b | (ga)f g2 :|

